public/twemojimobilephone.svg

<svg width="41" height="40" viewBox="0 0 41 40" fill="none" xmlns="http://www.w3.org/2000/svg">
<path d="M12.7218 40C12.7218 40 8.27734 40 8.27734 35.5556V4.44444C8.27734 4.44444 8.27734 0 12.7218 0H28.2773C28.2773 0 32.7218 0 32.7218 4.44444V35.5556C32.7218 35.5556 32.7218 40 28.2773 40H12.7218Z" fill="#31373D"/>
<path d="M10.5 5.55469H30.5V34.4436H10.5V5.55469Z" fill="#55ACEE"/>
</svg>

<svg width="41" height="40" fill="none" xmlns="http://www.w3.org/2000/svg"><path d="M12.722 40s-4.445 0-4.445-4.444V4.444S8.277 0 12.722 0h15.555s4.445 0 4.445 4.444v31.112s0 4.444-4.445 4.444H12.722z" fill="#31373D"/><path d="M10.5 5.555h20v28.889h-20V5.554z" fill="#55ACEE"/></svg>
